www/assets/icons/payments.svg

<svg width="24" height="24" viewBox="0 0 24 24" xmlns="http://www.w3.org/2000/svg" fill='currentColor'><path d="M19 14V6C19 4.9 18.1 4 17 4H3C1.9 4 1 4.9 1 6V14C1 15.1 1.9 16 3 16H17C18.1 16 19 15.1 19 14ZM10 13C8.34 13 7 11.66 7 10C7 8.34 8.34 7 10 7C11.66 7 13 8.34 13 10C13 11.66 11.66 13 10 13ZM23 7V18C23 19.1 22.1 20 21 20H4V18H21V7H23Z"/></svg>

<svg xmlns="http://www.w3.org/2000/svg" width="24" height="24" viewBox="0 0 24 24" fill='currentColor'><path d="M19 14V6c0-1.1-.9-2-2-2H3c-1.1 0-2 .9-2 2v8c0 1.1.9 2 2 2h14c1.1 0 2-.9 2-2m-9-1c-1.66 0-3-1.34-3-3s1.34-3 3-3 3 1.34 3 3-1.34 3-3 3m13-6v11c0 1.1-.9 2-2 2H4v-2h17V7z"/></svg>
